X:17
T:Lord Eglington's Reel
M:C|
L:1/8
B:Thompson's Compleat Collection of 200 Favourite Country Dances, vol. 1 (London, 1757)
Z:Transcribed and edited by Fynnian Titford-Mock, 2007
Z:abc's:AK/Fiddler's Companion
K:F
c|FF/F/ AF cA fg/a/\gecA G/G/G/ G2|FF/F/ AF cA f/g/a|g<eb<g f/f/f f2:|
|:g/f/e bd c/c/c c2|c/B/A/G/ F>D E/E/E E2|F/F/F AF cA f/g/a/|g<eb<g f/f/f f2:|
|:F/F/F AF (B<G)(A<F)|(B<G)(A<F) G/G/G g2|F/F/F AF B<GA<F|cbag f/f/f f2:|

